common/resources/fonts/svg/info.svg

<?xml version="1.0" encoding="UTF-8" standalone="no"?>
<svg width="1024px" height="1024px" viewBox="0 0 1024 1024" version="1.1" xmlns="http://www.w3.org/2000/svg" xmlns:xlink="http://www.w3.org/1999/xlink">
    <!-- Generator: Sketch 3.7.1 (28215) - http://www.bohemiancoding.com/sketch -->
    <title>info</title>
    <desc>Created with Sketch.</desc>
    <defs></defs>
    <g id="Page-1" stroke="none" stroke-width="1" fill="none" fill-rule="evenodd">
        <g id="info" fill="#000000">
            <path d="M512,102 C285.539062,102 102,285.539062 102,512 C102,738.460938 285.539062,922 512,922 C738.460938,922 922,738.460938 922,512 C922,285.539062 738.460938,102 512,102 L512,102 Z M559.646484,718.441406 C559.646484,743.666016 539.226562,764.085937 514.001953,764.085937 C488.777344,764.085937 468.357422,743.666016 468.357422,718.441406 L468.357422,477.886719 C468.357422,452.662109 488.777344,432.242187 514.001953,432.242187 C539.226562,432.242187 559.646484,452.662109 559.646484,477.886719 L559.646484,718.441406 L559.646484,718.441406 Z M514.001953,401.732422 C482.371094,401.732422 456.746094,376.107422 456.746094,344.476562 C456.746094,312.845703 482.371094,287.220703 514.001953,287.220703 C545.632812,287.220703 571.257812,312.845703 571.257812,344.476562 C571.257812,376.107422 545.632812,401.732422 514.001953,401.732422 L514.001953,401.732422 Z" id="Shape"></path>
        </g>
    </g>
</svg>

<svg width="1024" height="1024" viewBox="0 0 1024 1024">
    <path d="M512 102c-226.46 0-410 183.54-410 410s183.54 410 410 410 410-183.54 410-410-183.54-410-410-410zm47.646 616.441c0 25.225-20.42 45.645-45.644 45.645-25.225 0-45.645-20.42-45.645-45.645V477.887c0-25.225 20.42-45.645 45.645-45.645s45.644 20.42 45.644 45.645V718.44zm-45.644-316.709c-31.63 0-57.256-25.625-57.256-57.255 0-31.631 25.625-57.256 57.256-57.256 31.63 0 57.256 25.625 57.256 57.256 0 31.63-25.625 57.255-57.256 57.255z" fill-rule="evenodd"/>
</svg>
